X: 320
T: Twin Sisters [3]
B: canberra pickers and fiddlers
B: tunes
M:C
L:1/8
R: reel
Q: 1/4=100
K:D
V:1 
(A2|:"D"A)FDF A3(A|"G"B)ABd e2 de|"D"fedf eefe|dfed "G"B2 dB|
"D"AFDF A3A|"G"BABd e2 de|fedf "A"eefe|1 "D"d2 dd d3B:|2 "D"d2 dd d3f||
|:"D"afaf a2 aa|feff a2 aa|"D"ffaf "A"eefe|"D"dfed "G"B3f|"D"afdf a2 aa|
feff a2 aa|"D"ffaf "A"eefe|1 "D"d2 dd d3f:|2 "D"d2 dd d4||
% abcbook-tune_id 63da5934baa39ff5e3280a06
% abcbook-tune_composer_id 
% abcbook-link-0 https://www.youtube.com/watch?v=ES2f8gZniEI
% abcbook-boost 0
% abcbook-difficulty 0
% abcbook-tags canberra pickers and fiddlers,old time tunes,© free
% abcbook-tablature 
% abcbook-transpose 
% abcbook-tuning ADAE
% abcbook-lastupdated 1723940531770
% abcbook-src-url https://tunebook.net/scrape/tunes.abc
% abcbook-soundfonts 
% abcbook-repeats 1
%%gchordfont "itim-music,Itim" 20

